X:1
T:Still Closer
T:Powell George Fithian
T:Still Closer
T:Public Domain
T:Public Domain
C:Powell George Fithian
Z:Public Domain
%%score ( 1 2 ) ( 3 4 )
L:1/8
M:4/4
K:Bb
V:1 treble 
V:2 treble 
V:3 bass 
V:4 bass 
V:1
 ([DB][Ec]) | [Fd]2 [DF]2 [DF]2 (BA) | [FA]2 [EG]2 [EG]2 (cB) | [FB]2 [FA]2 [FA]2 ([Fd][Ec]) | %4
w: 1.~I’m *|saved, O Lord, yes *|Thy Name! I would *|trump- et voice pro- *|
w: 2.~Draw *|me so close that *|may hear When Thou *|whis- per in my *|
w: 3.~O *|glor- ious Sun, I’d *|on Thee, Till I *|o- ther ob- ject *|
w: 4.~No *|oth- er prayer my *|can learn, For Thee *|lone my soul doth *|
 [Ec]2 [DB]2 [DB]2 ([DB][Ec]) | [Fd]2 [DF]2 [DF]2 (BA) | [FA]2 [EG]2 [EG]2 (cd) | %7
w: claim The bless- èd *|news! But I would *|Drawn dai- ly clos- *|
w: ear; So close that *|thro’ all earth- ly *|I clear- ly hear *|
w: see; And yet would *|plead, if ’tis Thy *|Draw me a lit- *|
w: yearn; My prayer through- *|out e- ter- ni- *|A lit- tle clos- *|
 [Ge]2 [Fe]2 [Fd]2 ([Ge][Ec]) | [DB]2 [CA]2 [DB]2 ||"^Refrain" [Fd][Ec] | [DB]4- [DB][DF][DB][FA] | %11
w: Lord, to Thee. * *||||
w: Sav- ior’s voice. Clos- *|er still, yes,|clos- er|still. * Ev- er clos-|
w: clos- er still. * *||||
w: Lord, to Thee. * *||||
 [EG]6 [=Ec][EB] | [FB][FA][FA][FA] [FA]2 [Fd][Ec] | [Ec][DB][DB][DB] [DB]2 [Fd][Ec] | %14
w: |||
w: er, Lord, to|Thee, Bless- èd Sav- ior, I would|be; And ac- cord- ing to Thy|
w: |||
w: |||
 [DB]4- [DB][DF][DB][FA] | [EG]6 [EG][EG] | [DF]2 [DB]2 (BA)(GA) | [DB]6 |] %18
w: ||||
w: will, * More like Thee|I fain would|be. * * * * *||
w: ||||
w: ||||
V:2
 x2 | x6 F2 | x6 =E2 | x8 | x8 | x6 F2 | x6 G2 | x8 | x6 || x2 | x8 | x8 | x8 | x8 | x8 | x8 | %16
w: |praise|with|||be|er,||||||||||
w: |I|wouldst|||noise|my||||||||||
w: |gaze|no|||will,|tle||||||||||
w: |soul|a-|||ty,|er,||||||||||
 x4 C2 E2 | x6 |] %18
w: ||
w: ||
w: ||
w: ||
V:3
 [B,,F,]2 | [B,,F,]2 [B,,B,]2 [B,,B,]2 [D,B,]2 | [E,B,]2 [E,B,]2 [E,B,]2 [C,C]2 | %3
w: ~|~ ~ ~ ~|~ ~ ~ ~|
 [F,D]2 [F,C]2 [F,C]2 [F,A,]2 | [B,,B,]2 [B,,F,]2 [B,,F,]2 [B,,B,]2 | %5
w: ~ ~ ~ ~|~ ~ ~ ~|
 [B,,B,]2 [B,,B,]2 [B,,B,]2 [D,B,]2 | [E,B,]2 [E,B,]2 [E,B,]2 ([E,B,][D,=B,]) | %7
w: ~ ~ ~ ~|~ ~ ~ ~ *|
 [C,C]2 [F,A,]2 B,2 (B,G,) | F,2 F,2 [B,,F,]2 || z2 | z2 [B,,B,][B,,B,] [B,,B,] z3 | %11
w: ~ ~ ~ ~ *|~ Close- er||clos- er still|
 z [E,B,][E,B,][E,B,] [E,B,]2 [C,C][C,C] | [F,D][F,C][F,C][F,C] [F,C]2 [F,A,][F,A,] | %13
w: ~ ~ ~ ~ ~ ~|~ ~ ~ ~ ~ ~ ~|
 [B,,F,][B,,F,][B,,F,][B,,F,] [B,,F,]2 z2 | z2 [B,,B,][B,,B,] [B,,B,][B,,B,] z2 | %15
w: ~ And ac- cord- ing|Thy bless- èd will,|
 z [E,B,][E,B,][E,B,] [E,B,]2 [E,B,][E,B,] | [F,B,]2 F,2 F,2 F,2 | [B,,F,]6 |] %18
w: |||
V:4
 x2 | x8 | x8 | x8 | x8 | x8 | x8 | x4 B,2 E,2 | F,2 F,2 x2 || x2 | x8 | x8 | x8 | x8 | x8 | x8 | %16
w: |||||||~ ~|still, yes,||||||||
 x2 F,2 F,2 F,2 | x6 |] %18
w: ||

